!!!!SEGMENT: pl-kk--kk-i-308_anonim--vere-languores.krn
!!!cenid: 17xx:2108
!!!COM: Anonim
!!!COM-rismID: pe30004985
!!!CDT:
!!!CNT:
!!!OTL: Vere languores
!!!PDT:
!!!AGN: Sacred
!!!YEC: Copyright 2022 Narodowy Instytut Fryderyka Chopina (https://polishscores.org)
!!!YEM: License CC-BY-4.0 (https://creativecommons.org/licenses/by/4.0)
!!!SMS-siglum: PL-Kk
!!!SMS-shelfmark: Kk.I.308
!!!SMS-shelfwork: W
!!!SMS-variant:
!!!SMS-altvar:
!!!NIFC-rismSourceID: 1001147314
!!!NIFC-rismChildID: 1001147314
!!!NIFC-islandoraID: pl-kk:5204
!!!URL-pdf-islandora: https://repozytorium.nifc.pl/islandora/object/pl-kk%3A5204/datastream/PDF/view
!!!URL-scan: https://polish.musicsources.pl/pl/lokalizacje/galeria/rekopisy/5927 @EN{Scan on Polish Music Sources Website} @PL{Skany w portalu Dziedzictwo Muzyki Polskiej w otwartym dostępie}
!!!IIIF:
!!!ONB-nifc:
!!!AIN: 1 alto 1 empty 1 tenor 1 vox
!!!key:
**kern	**text	**kern	**text	**kern	**text	**kern	**text
*part4	*	*part3	*	*part2	*	*part1	*
*staff4	*	*staff3	*	*staff2	*	*staff1	*
*Iempty	*	*Itenor	*	*Ialto	*	*Ivox	*
*I"Baſso.	*	*I"Tenore.	*	*I"Alto.	*	*I"Canto	*
*I'B	*	*I'T	*	*I'A	*	*I'S	*
*clefF4	*	*clefC4	*	*clefC3	*	*clefC1	*
*k[]	*	*k[]	*	*k[]	*	*k[]	*
*C:	*	*C:	*	*C:	*	*C:	*
*M2/1	*	*M2/1	*	*M2/1	*	*M2/1	*
*met(C|)	*	*met(C|)	*	*met(C|)	*	*met(C|)	*
=1-	=1-	=1-	=1-	=1-	=1-	=1-	=1-
*	*	*	*	*2\right	*	*	*
!	!	!	!	!LO:TX:t=P:problem=2r po metrum (?)	!	!	!
!	!	!	!	!	!	!LO:TX:t=P:problem=oddech/cezura na różnych wysokościach	!
!LO:TX:t=P:problem=przed kluczem inicjał V	!	!LO:TX:t=P:problem=przed kluczem inicjał V	!	!LO:TX:t=P:problem=przed kluczem inicjał V	!	!LO:TX:t=P:problem=przed kluczem inicjał V	!
2C/	Ve-	2G/	Ve-	2e\	Ve-	2r	.
*	*	*	*	*	*	*2\right	*
2C/	-re	2G/	-re	2e\	-re	2g\	Ve-
*2\right	*	*	*	*	*	*	*
2c\	ve-	2G/	ve-	2e\	ve-	2g\	-re
*	*	*	*	*	*	*	*ij
!LO:TX:t=P:problem=kreska pseudotaktowa	!	!LO:TX:t=P:problem=kreska pseudotaktowa	!	!LO:TX:t=P:problem=kreska pseudotaktowa	!	!LO:TX:t=P:problem=kreska pseudotaktowa	!
2C/	-re	2G/	-re	2e\	-re	2cc\	Ve-
=2-	=2-	=2-	=2-	=2-	=2-	=2-	=2-
!LO:TX:t=P:problem=1D poprawione na 1F	!	!	!	!	!	!	!
!LO:TX:a:i:B:t=f	!	!	!	!	!	!	!
1F	lan-	1A	lan-	1f	lan-	2cc,<\	-re
*	*	*	*	*	*	*	*Xij
.	.	.	.	.	.	2cc\	lan-
2C/	-gvo-	2G/	-gvo-	2e\	-gvo-	2cc\	-gvo-
!LO:TX:t=P:problem=kreska pseudotaktowa	!	!	!	!LO:TX:t=P:problem=kreska pseudotaktowa	!	!LO:TX:t=P:problem=kreska pseudotaktowa	!
2C/	-res	2G/	-res	2e\	-res	2cc\	-res
=3-	=3-	=3-	=3-	=3-	=3-	=3-	=3-
*	*	*2\right	*	*	*	*	*
2G\	no-	2B\	no-	2d\	no-	2b\	no-
4E,<\	-stros,	4B\	-stros	4g,<\	-stros,	4b\	-stros
4E\	lan-	4B\	lan-	4g\	lan-	4b\	Lan-
1A	-gvo-	1c	-gvo-	2g\	gvo-	1a	-gvo-
!	!	!	!	!LO:TX:t=P:problem=kreska pseudotaktowa	!	!	!
.	.	.	.	2f\	-res	.	.
=4-	=4-	=4-	=4-	=4-	=4-	=4-	=4-
!LO:TX:t=P:problem=kreska pseudotaktowa	!	!	!	!	!	!LO:TX:t=P:problem=kreska pseudotaktowa	!
1G	-res	(2B\	-res	2g\	no-	1b	-res
!	!	!LO:TX:t=P:problem=kreska pseudotaktowa	!	!	!	!	!
.	.	2G/)	.	(4g\	-stros	.	.
.	.	.	.	4f\)	.	.	.
*	*	*	*	*	*ij	*	*
2C/	no-	2G/	no-	2e\	no-	2cc\	no-
!	!	!	!	!LO:TX:t=P:problem=kreska pseudotaktowa	!	!	!
2C/	-stros	2c,<\	-stros,	2g\	-stros	2cc\	-stros
*	*	*	*	*	*Xij	*	*
=5-	=5-	=5-	=5-	=5-	=5-	=5-	=5-
1D	tu-	2c\	tu-	2g\	tu-	2a\	tu-
!	!	!	!	!LO:SIC:v:s=4f#	!	!LO:TX:t=P:problem=kreska pseudotaktowa	!
.	.	4B\	.	4f\	.	[2dd\	.
.	.	4A\	.	4e\	.	.	.
!	!	!LO:TX:t=P:problem=kreska pseudotaktowa	!	!LO:TX:t=P:problem=kreska pseudotaktowa	!	!	!
(1D	lit	1A	.	1f#X	.	4dd\]	.
.	.	.	.	.	.	4cc\	.
.	.	.	.	.	.	(2a\	.
=6-	=6-	=6-	=6-	=6-	=6-	=6-	=6-
!	!	!LO:LB:g=original	!	!LO:LB:g=original	!	!	!
2G,<\)	.	1G	.	1g	.	1b)	.
2G\	tu-	.	.	.	.	.	.
!LO:LB:g=original	!	!LO:TX:t=P:problem=kreska pseudotaktowa	!	!LO:TX:t=P:problem=kreska pseudotaktowa	!	!LO:TX:t=P:problem=kreska pseudotaktowa	!
1G	-lit	1G	-lit	1g	-lit	1b	-lit
=7-	=7-	=7-	=7-	=7-	=7-	=7-	=7-
!	!	!	!	!LO:TX:t=P:problem=kreska pseudotaktowa	!	!	!
0r	.	2G/	et	1r	.	2r	.
.	.	2G/	do-	.	.	2g\	et
!	!	!	!	!	!	!LO:LB:g=original	!
.	.	2c\	-lo-	2c\	et	2g\	do-
.	.	4A,<\	-res,	2c\	do-	1cc	-lo-
.	.	4A\	do-	.	.	.	.
=8-	=8-	=8-	=8-	=8-	=8-	=8-	=8-
1r	.	1d	-lo-	2fny\	-lo-	.	.
!	!	!	!	!	!	!LO:TX:t=P:problem=kreska pseudotaktowa	!
.	.	.	.	2d\	-res	2b\	-res
!	!	!LO:TX:t=P:problem=kreska pseudotaktowa	!	!	!	!	!
2C/	et	1c	-res	2e\	no-	2cc\	no-
2C/	do-	.	.	2e\	-stros	2cc\	-stros
=9-	=9-	=9-	=9-	=9-	=9-	=9-	=9-
2G\	-lo-	2r	.	2d\	tu-	2b\	tu-
!	!	!	!	!LO:TX:t=P:problem=kreska pseudotaktowa	!	!	!
4E,<\	-res,	4e\	et	2g\	-lit	2g\	-lit
4E\	do-	4e\	do-	.	.	.	.
2A\	-lo-	2e\	-lo-	2g\	no-	2cc\	no-
!	!	!	!	!	!	!LO:TX:t=P:problem=kreska pseudotaktowa	!
2A\	-res	2c\	-res	2f\	-stros	2a\	-stros
=10-	=10-	=10-	=10-	=10-	=10-	=10-	=10-
*	*	*	*	*	*ij	*	*
2G\	no-	1B	no-	2g\	no-	2dd\	tu-
!LO:TX:t=P:problem=kreska pseudotaktowa	!	!	!	!LO:TX:t=P:problem=kreska pseudotaktowa	!	!	!
2G\	-stros	.	.	2g\	-stros	2dd\	-lit
*	*	*	*	*	*Xij	*	*
!	!	!LO:TX:t=P:problem=kreska pseudotaktowa	!	!	!	!	!
2r	.	1c	-stros	2e\	et	2g\	et
4F\	et	.	.	2f\	do-	2cc\	do-
4F\	do-	.	.	.	.	.	.
=11-	=11-	=11-	=11-	=11-	=11-	=11-	=11-
2F\	-lo-	1r	.	2f\	-lo-	2a\	-lo-
!LO:TX:t=P:problem=kreska pseudotaktowa	!	!	!	!LO:TX:t=P:problem=kreska pseudotaktowa	!	!LO:TX:t=P:problem=kreska pseudotaktowa	!
2D\	-res	.	.	2f\	-res	2b\	-res
!	!	!	!	!LO:LB:g=original	!	!	!
1A	no-	2r	.	2.e\	et	2cc\	et
.	.	4c\	et	.	.	2cc\	do-
.	.	4c\	do-	4f\	do-	.	.
=12-	=12-	=12-	=12-	=12-	=12-	=12-	=12-
2G\	-stros	(2d\	-lo-	1g	-lo-	2b\	-lo-
2C/	do-	2e\)	.	.	.	4cc,<\	-res,
.	.	.	.	.	.	4cc\	do-
!	!	!	!	!LO:TX:t=P:problem=kreska pseudotaktowa	!	!	!
2C/	-lo-	(2e\	-res	1g	-res	2cc\	-lo-
!LO:TX:t=P:problem=kreska pseudotaktowa	!	!LO:TX:t=P:problem=kreska pseudotaktowa	!	!	!	!LO:TX:t=P:problem=kreska pseudotaktowa	!
2GG/	-res	2d\)	.	.	.	2dd\	-res
=13-	=13-	=13-	=13-	=13-	=13-	=13-	=13-
!LO:LB:g=original	!	!LO:LB:g=original	!	!	!	!LO:LB:g=original	!
2.C/	I-	2e\	I-	2g\	I-	2cc\	I-
.	.	4e\	.	4g\	-pse	4b\	.
4D/	.	4d\	.	4g\	por-	4a\	.
2.E\	-pse	2B\	-pse	2g\	-ta-	2g,<\	-pse
!	!	!	!	!LO:TX:t=P:problem=kreska pseudotaktowa	!	!	!
.	.	2e\	por-	2g\	-vit	2cc\	por-
4F\	por-	.	.	.	.	.	.
=14-	=14-	=14-	=14-	=14-	=14-	=14-	=14-
1G	-ta-	1d	-ta-	2r	.	2cc\	-ta-
.	.	.	.	4g\	et	2b\	.
.	.	.	.	4g\	do-	.	.
!LO:TX:t=P:problem=kreska pseudotaktowa	!	!	!	!	!	!LO:TX:t=P:problem=kreska pseudotaktowa	!
1C	-vit	1c	.	2g\	-lo-	1cc	-vit
!	!	!	!	!LO:TX:t=P:problem=kreska pseudotaktowa	!	!	!
.	.	.	.	2e\	-res	.	.
=15-	=15-	=15-	=15-	=15-	=15-	=15-	=15-
!	!	!LO:TX:t=P:problem=kreska pseudotaktowa	!	!	!	!	!
2r	.	1G	-vit	2g\	I-	2r	.
4G\	et	.	.	4g\	-pse	4b\	et
4G\	do-	.	.	4g\	por-	4b\	do-
2G\	-lo-	0r	.	2g\	-ta-	2b\	-lo-
!	!	!	!	!LO:TX:t=P:problem=kreska pseudotaktowa	!	!LO:TX:t=P:problem=kreska pseudotaktowa	!
4E\	-res	.	.	2g\	-vit	2g\	-res
4E\	do-	.	.	.	.	.	.
=16-	=16-	=16-	=16-	=16-	=16-	=16-	=16-
1A	-lo-	.	.	00r	.	2cc\	et
.	.	.	.	.	.	2cc\	do-
2G\	.	2G/	et	.	.	2b\	-lo-
!LO:TX:t=P:problem=kreska pseudotaktowa	!	!	!	!	!	!LO:TX:t=P:problem=kreska pseudotaktowa	!
2C/	-res	2G/	do-	.	.	2g\	-res
=17-	=17-	=17-	=17-	=17-	=17-	=17-	=17-
*	*	*	*	*	*	*	*ij
2C/	et	2c\	-lo-	.	.	2g/	et
2C/	do-	4c\	-res	.	.	2g/	do-
!	!	!LO:TX:t=P:problem=kreska pseudotaktowa	!	!	!	!	!
.	.	4c\	do-	.	.	.	.
2BB/	-lo-	2d\	-lo-	.	.	2g/	-lo-
!	!	!	!	!	!	!LO:TX:t=P:problem=kreska pseudotaktowa	!
2C/	.	2.e\	.	.	.	2g/	-res
*	*	*	*	*	*	*	*Xij
=18-	=18-	=18-	=18-	=18-	=18-	=18-	=18-
!	!	!	!	!	!	!LO:LB:g=original	!
1AA	.	.	.	1r	.	2g\	et
.	.	4d\	.	.	.	.	.
.	.	1c	.	.	.	2f/	do-
!LO:TX:t=P:problem=kreska pseudotaktowa	!	!	!	!	!	!	!
1GG	-res	.	.	2r	.	2.g/	-lo-
!	!	!LO:TX:t=P:problem=kreska pseudotaktowa	!	!	!	!	!
.	.	2B\	.	2g\	I-	.	.
!	!	!	!	!	!	!LO:TX:t=P:problem=kreska pseudotaktowa	!
.	.	.	.	.	.	4f/	.
=19-	=19-	=19-	=19-	=19-	=19-	=19-	=19-
!LO:LB:g=original	!	!	!	!	!	!	!
2rBB	.	2c,<\	-res	2g\	-pse	2e,</	-res
2C/	I-	2c\	I-	2g\	por-	2cc\	I-
!	!	!LO:LB:g=original	!	!LO:TX:t=P:problem=kreska pseudotaktowa	!	!	!
2C/	-pse	2c\	-pse	1g	-ta-	2cc\	-pse
!	!	!	!	!	!	!LO:TX:t=P:problem=kreska pseudotaktowa	!
2C/	por-	2G/	por-	.	.	2cc\	por-
=20-	=20-	=20-	=20-	=20-	=20-	=20-	=20-
2G\	-ta-	2B\	-ta-	2g\	-vit	2b\	-ta-
!	!	!LO:TX:t=P:problem=kreska pseudotaktowa	!	!	!	!	!
2C/	.	2c\	.	2g\	por-	2g\	.
1D	.	1A	.	2g\	-ta-	1dd	.
.	.	.	.	2f#X\	.	.	.
=21-	=21-	=21-	=21-	=21-	=21-	=21-	=21-
1G	.	1G	.	1g	.	1b	.
!LO:TX:t=P:problem=kreska pseudotaktowa	!	!LO:TX:t=P:problem=kreska pseudotaktowa	!	!LO:TX:t=P:problem=kreska pseudotaktowa	!	!LO:TX:t=P:problem=kreska pseudotaktowa	!
1GG	-vit	1G	-vit	1g	-vit.	1b	-vit
=22-	=22-	=22-	=22-	=22-	=22-	=22-	=22-
!	!	!	!	!LO:TX:t=P:problem=t. 22-24 na wklejonym fragmencie pięciolinii	!	!	!
1C	Et	1G	Et	1e	Et	1cc	Et
2F\	nos	2A\	nos	2fny\	nos	2a\	nos
!	!	!	!	!LO:TX:t=P:problem=kreska pseudotaktowa	!	!	!
2F\	pu-	2A\	pu-	2f\	pu-	2a\	pu-
=23-	=23-	=23-	=23-	=23-	=23-	=23-	=23-
!	!	!	!	!LO:TX:t=P:problem=4f poprawione na 2f	!	!	!
2F\	-ta-	2A\	-ta-	2f\	-ta-	2a\	-ta-
4C/	-vi-	4c\	-vi-	4g\	-vi-	4g\	-vi-
!LO:TX:t=P:problem=kreska pseudotaktowa	!	!LO:TX:t=P:problem=kreska pseudotaktowa	!	!	!	!LO:TX:t=P:problem=kreska pseudotaktowa	!
4C/	-mus	4c\	-mus	4g\	-mus	4g\	-mus
!	!	!	!	!LO:TX:t=P:problem=kreska pseudotaktowa	!	!	!
!	!	!	!	!	!	!LO:LB:g=original	!
(2C/	et	(2c\	et	1g	et	1cc	et
2E\)	.	2G/)	.	.	.	.	.
=24-	=24-	=24-	=24-	=24-	=24-	=24-	=24-
!	!	!LO:TX:t=P:problem=kreska pseudotaktowa	!	!	!	!	!
1G	nos	1B	nos	1g	nos	1b	nos
!LO:TX:t=P:problem=kreska pseudotaktowa	!	!	!	!LO:TX:t=P:problem=kreska pseudotaktowa	!	!	!
1D	pu-	2A\	pu-	1f	pu-	2dd\	pu-
!	!	!	!	!	!	!LO:TX:t=P:problem=kreska pseudotaktowa	!
.	.	4d\	-ta-	.	.	2a\	-ta-
.	.	4c\	.	.	.	.	.
=25-	=25-	=25-	=25-	=25-	=25-	=25-	=25-
!LO:LB:g=original	!	!LO:LB:g=original	!	!LO:LB:g=original	!	!	!
2F\	-ta-	2A\	.	2f\	-ta-	4a\	-vi-
.	.	.	.	.	.	4b\	-m(us)
4F\	-vi-	4A\	-vi-	4f\	-vi-	1cc	E-
4G\	-mus	4B,<\	-mus,	4f\	-mus	.	.
1A	E-	(4c\	E-	1e	E-	.	.
.	.	4A\)	.	.	.	.	.
!	!	!	!	!	!	!LO:TX:t=P:problem=kreska pseudotaktowa	!
.	.	1c	.	.	.	2a\	-um
=26-	=26-	=26-	=26-	=26-	=26-	=26-	=26-
!LO:TX:t=P:problem=kreska pseudotaktowa	!	!	!	!	!	!	!
1G	-um	.	.	2g,<\	-um,	2r	.
!	!	!LO:TX:t=P:problem=kreska pseudotaktowa	!	!LO:TX:t=P:problem=kreska pseudotaktowa	!	!	!
.	.	2B\	-um	2g\	qva-	2b\	qva-
2rBB	.	2r	.	2e\	-si	2cc\	-si
2C/	qva-	2G/	qva-	2e\	le-	2cc\	le-
=27-	=27-	=27-	=27-	=27-	=27-	=27-	=27-
!	!	!	!	!	!	!LO:TX:t=P:problem=kreska pseudotaktowa	!
2F\	-si	2A/	-si	1f	-pro-	1a	-pro-
2D\	le-	2A/	le-	.	.	.	.
!LO:TX:t=P:problem=kreska pseudotaktowa	!	!LO:TX:t=P:problem=kreska pseudotaktowa	!	!LO:TX:t=P:problem=kreska pseudotaktowa	!	!	!
1G	-pro-	1B	-pro-	1d	-sum	2g,</	-sum,
.	.	.	.	.	.	2g/	et
=28-	=28-	=28-	=28-	=28-	=28-	=28-	=28-
2C,</	-sum,	2c\	-sum	2r	.	(4g\	per-
.	.	.	.	.	.	4a\)	.
!LO:SIC:v:s=2BB-	!	!	!	!	!	!	!
2BB/	et	2d\	et	1f	et	1b-X	-cus-
!LO:SIC:v:s=2BB-	!	!	!	!	!	!	!
(>2BB/	per-	2d\	per-	.	.	.	.
!	!	!	!	!	!	!LO:TX:t=P:problem=kreska pseudotaktowa	!
2C/)	.	1c	-cuſ-	2e\	per-	2g\	-sum,
=29-	=29-	=29-	=29-	=29-	=29-	=29-	=29-
!LO:TX:t=P:problem=kreska pseudotaktowa	!	!	!	!LO:TX:t=P:problem=kreska pseudotaktowa	!	!	!
1GG	-cuſ-	.	.	1d	-cuſ-	2g\	et
.	.	2B\	.	.	.	2g\	per-
!	!	!LO:TX:t=P:problem=kreska pseudotaktowa	!	!	!	!	!
!	!	!	!	!	!	!LO:LB:g=original	!
2C,</	-sum	1c	-sum	2e,<\	-sum,	1g	-cuſ-
2C/	per-	.	.	2e\	per-	.	.
=30-	=30-	=30-	=30-	=30-	=30-	=30-	=30-
2C/	-cuſ-	2r	.	2e\	-cuſ-	2g,<\	-sum
!LO:TX:t=P:problem=kreska pseudotaktowa	!	!	!	!LO:TX:t=P:problem=kreska pseudotaktowa	!	!	!
2C/	-su(m)	2c\	per-	2e\	-sum	2g\	per-
!	!	!	!	!	!	!LO:TX:t=P:problem=kreska pseudotaktowa	!
1C	per-	2c\	-cuſ-	1e	per-	1cc	-cuſ-
.	.	4c,<\	-su(m),	.	.	.	.
.	.	4c\	per-	.	.	.	.
=31-	=31-	=31-	=31-	=31-	=31-	=31-	=31-
!LO:LB:g=original	!	!LO:LB:g=original	!	!	!	!	!
1F	-cuſ-	1c	-cuſ-	1f	-cus-	2cc,<\	-sum,
*	*	*	*	*	*	*	*ij
.	.	.	.	.	.	2cc\	per-
!	!	!	!	!LO:LB:g=original	!	!	!
2F,<\	-sum	1d	.	2f,<\	-sum	2cc\	-cuſ-
2G\	a	.	.	(4d\	a	2bny\	-sum,
*	*	*	*	*	*	*	*Xij
.	.	.	.	4e\)	.	.	.
=32-	=32-	=32-	=32-	=32-	=32-	=32-	=32-
1D	DE-	2d,<\	-sum,	2f\	DE-	2a\	a
!	!	!	!	!	!	!LO:TX:t=P:problem=kreska pseudotaktowa	!
.	.	2B\	a	2g\	.	[2dd\	DE-
1D	.	1A	DE-	2g\	.	4dd\]	.
.	.	.	.	.	.	4cc\	.
.	.	.	.	2f#X\	.	2a\	.
=33-	=33-	=33-	=33-	=33-	=33-	=33-	=33-
1GG	.	1G	.	1g	.	1b	.
!LO:TX:t=P:problem=kreska pseudotaktowa	!	!LO:TX:t=P:problem=kreska pseudotaktowa	!	!LO:TX:t=P:problem=kreska pseudotaktowa	!	!LO:TX:t=P:problem=kreska pseudotaktowa	!
1GG	-O.	1G	-O.	1g	-O.	1b	-O.
=34-	=34-	=34-	=34-	=34-	=34-	=34-	=34-
!	!	!	!	!	!	!LO:TX:t=P:problem=kreska pseudotaktowa	!
2rBB	.	1G	I-	0r	.	0r	.
1C	I-	.	.	.	.	.	.
.	.	2A\	-pse	.	.	.	.
!LO:TX:t=P:problem=kreska pseudotaktowa	!	!	!	!	!	!	!
2D/	-pse	2.B\	au-	.	.	.	.
=35-	=35-	=35-	=35-	=35-	=35-	=35-	=35-
2.E\	au-	.	.	2r	.	2g\	I-
.	.	4G/	-tem	.	.	.	.
!	!	!LO:TX:t=P:problem=kreska pseudotaktowa	!	!	!	!	!
.	.	2c\	vul-	1c	I-	2g\	-pse
4E\	-tem	.	.	.	.	.	.
2F\	vul-	2A\	-ne-	.	.	2a\	au-
!	!	!	!	!LO:TX:t=P:problem=kreska pseudotaktowa	!	!	!
2D\	-ne-	4d\	-ra-	2d\	-pse	2b\	-tem
.	.	4c\	.	.	.	.	.
=36-	=36-	=36-	=36-	=36-	=36-	=36-	=36-
!	!	!	!	!	!	!LO:LB:g=original	!
2G\	-ra-	4B\	.	2d\	au-	4b\	vul-
.	.	4A\	.	.	.	4b\	-ne-
!	!	!LO:TX:t=P:problem=kreska pseudotaktowa	!	!	!	!	!
2E\	-tus	2G/	-tus	2e\	-tem	2cc\	-ra-
!LO:TX:t=P:problem=kreska pseudotaktowa	!	!LO:TX:t=P:problem=kreska pseudotaktowa	!	!	!	!	!
1F	est	1r	.	2e\	vul-	2cc\	-tus
!	!	!	!	!	!	!LO:TX:t=P:problem=kreska pseudotaktowa	!
.	.	.	.	2d\	-ne-	2a\	est
=37-	=37-	=37-	=37-	=37-	=37-	=37-	=37-
!LO:LB:g=original	!	!LO:LB:g=original	!	!	!	!	!
1E	pro-	2r	.	2e\	-ra-	2a\	pro-
!	!	!	!	!LO:TX:t=P:problem=kreska pseudotaktowa	!	!	!
.	.	2E/	pro-	2e\	-tus	2g\	-pter
!	!	!	!	!	!	!LO:TX:t=P:problem=4f poprawione na 2f	!
2D\	-pter	2F/	-pter	2A/	pro-	2f/	i-
!LO:TX:t=P:problem=kreska pseudotaktowa	!	!LO:TX:t=P:problem=kreska pseudotaktowa	!	!LO:TX:t=P:problem=kreska pseudotaktowa	!	!	!
2D\	i-	2D/	i-	2B/	-pter	4f/	-ni-
.	.	.	.	.	.	4f/	-qvi-
=38-	=38-	=38-	=38-	=38-	=38-	=38-	=38-
!	!	!	!	!LO:LB:g=original	!	!	!
2.C/	-ni-	4E/	-ni-	2.c\	i-	2e/	-ta-
.	.	4F/	-qvi-	.	.	.	.
!	!	!	!	!	!	!LO:TX:t=P:problem=kreska pseudotaktowa	!
.	.	[>2G/	-ta-	.	.	2e/	-tes
4BB/	-qvi-	.	.	4d\	.	.	.
2AA/	-ta-	2G/]	.	2e\	-ni-	1cc	no-
!	!	!LO:TX:t=P:problem=kreska pseudotaktowa	!	!	!	!	!
2AA/	-tes	2F/	-tes	2A/	-qvi-	.	.
=39-	=39-	=39-	=39-	=39-	=39-	=39-	=39-
!	!	!	!	!	!	!LO:TX:t=P:problem=kreska pseudotaktowa	!
2GG/	no-	1G	at-	2d\	-ta-	1b	-stras
!LO:TX:t=P:problem=kreska pseudotaktowa	!	!	!	!LO:TX:t=P:problem=kreska pseudotaktowa	!	!	!
2GG/	-stras	.	.	2d\	-tes	.	.
2rBB	.	[1c	-tri-	1e	at	2r	.
2C/	at-	.	.	.	.	2cc\	at-
=40-	=40-	=40-	=40-	=40-	=40-	=40-	=40-
2C/	-tri-	2c\]	.	2e\	tri-	2cc\	-tri-
!	!	!	!	!LO:TX:t=P:problem=kreska pseudotaktowa	!	!	!
2G\	-tus	2d,<\	-tus,	2g\	-tus	2b\	-tus
!LO:TX:t=P:problem=kreska pseudotaktowa	!	!LO:TX:t=P:problem=kreska pseudotaktowa	!	!	!	!LO:TX:t=P:problem=kreska pseudotaktowa	!
1D	est	1d	est	1fny,<	est,	1a	est
=41-	=41-	=41-	=41-	=41-	=41-	=41-	=41-
2D\	pro-	2d\	pro-	2f\	pro-	2a\	pro-
!	!	!	!	!LO:TX:t=P:problem=kreska pseudotaktowa	!	!	!
2G\	-pter	2B\	-pter	2d\	-pter	2g\	-pter
!	!	!	!	!	!	!LO:PB:g=original	!
2.F\	sce-	2.A\	sce-	2.f\	sce-	2.a\	sce-
4F\	-le-	4A\	-le-	4f\	-le-	4a\	-le-
=42-	=42-	=42-	=42-	=42-	=42-	=42-	=42-
!	!	!LO:TX:t=P:problem=kreska pseudotaktowa	!	!	!	!	!
1C	-ra	1G	-ra	2e\	-ra	1cc	-ra
!	!	!	!	!LO:TX:t=P:problem=kreska pseudotaktowa	!	!	!
.	.	.	.	2g\	no-	.	.
*custos:C	*	*	*	*	*	*	*
!LO:TX:t=P:problem=kreska pseudotaktowa	!	!	!	!	!	!	!
!	!	!LO:PB:g=original	!	!	!	!	!
1r	.	2A\	no-	2f,<\	-stra	1r	.
.	.	2B\	-stra	(2d\	pro-	.	.
=43-	=43-	=43-	=43-	=43-	=43-	=43-	=43-
!LO:PB:g=original	!	!	!	!	!	!	!
2r	.	2c\	pro-	2e\)	.	2r	.
!	!	!	!	!LO:TX:t=P:problem=kreska pseudotaktowa	!	!LO:TX:t=P:problem=kreska pseudotaktowa	!
(2C/	pro-	2e\	-p(te)r	2g\	pter	2cc\	pro-
!	!	!	!	!LO:PB:g=original	!	!	!
2G\)	.	4d\	sce-	2.g\	sce-	(2b\	-pter
.	.	4d\	-le-	.	.	.	.
!	!	!LO:TX:t=P:problem=kreska pseudotaktowa	!	!	!	!	!
2C/	-pter	2e\	-ra	.	.	2g\)	.
.	.	.	.	4g\	-le-	.	.
=44-	=44-	=44-	=44-	=44-	=44-	=44-	=44-
2D\	sce-	1r	.	(2f\	-ra	2dd\	sce-
!	!	!	!	!LO:TX:t=P:problem=kreska pseudotaktowa	!	!	!
4E\	-le-	.	.	2e\)	.	4cc\	-le-
!LO:TX:t=P:problem=kreska pseudotaktowa	!	!	!	!	!	!	!
4E\	-ra	.	.	.	.	4b\	-ra
2F\	no-	2r	.	2c\	no-	2a\	no-
!	!	!	!	!	!	!LO:TX:t=P:problem=kreska pseudotaktowa	!
4E\	.	1G	pro-	2.e\	.	2g\	-stra
4D\	.	.	.	.	.	.	.
=45-	=45-	=45-	=45-	=45-	=45-	=45-	=45-
2C,</	-stra	.	.	.	.	2g\	pro-
.	.	.	.	4f\	.	.	.
!LO:TX:t=P:problem=kreska pseudotaktowa	!	!	!	!	!	!	!
2E\	sce-	2G/	-p(te)r	2g\	.	2g\	-p(te)r
2.D\	.	2.A/	sce-	2g\	.	2.dd\	sce-
!	!	!	!	!LO:TX:t=P:problem=kreska pseudotaktowa	!	!	!
.	.	.	.	2f#X\	.	.	.
4D\	-le-	4A/	-le-	.	.	4dd\	-le-
=46-	=46-	=46-	=46-	=46-	=46-	=46-	=46-
2G,<\	-ra	2G/	-ra	1g	.	2b\	-ra
2G\	no-	2G/	no-	.	.	2b\	no-
!LO:TX:t=P:problem=poprawka kopisty	!	!LO:TX:t=P:problem=kreska pseudotaktowa	!	!LO:TX:t=P:problem=kreska pseudotaktowa	!	!	!
[>2GG/	-stra	1G	-stra	1g	-stra	1b	-stra
!LO:TX:t=P:problem=kreska pseudotaktowa	!	!	!	!	!	!	!
2GG/]	.	.	.	.	.	.	.
=47-	=47-	=47-	=47-	=47-	=47-	=47-	=47-
!	!	!	!	!	!	!LO:TX:a:t=3	!
2C/	Di-	0r	.	1r	.	0r	.
2C/	-sci-	.	.	.	.	.	.
2E\	-pli-	.	.	2r	.	.	.
2E\	-na	.	.	2c/	Di-	.	.
=48-	=48-	=48-	=48-	=48-	=48-	=48-	=48-
!LO:LB:g=original	!	!	!	!	!	!	!
2F\	pa-	2c\	Di-	2d\	-sci-	1r	.
!	!	!	!	!LO:TX:t=P:problem=kreska pseudotaktowa	!	!	!
2C/	-cis	2c\	-sci-	2e\	-pli-	.	.
2.E\	no-	2c\	-pli-	2e\	-na	2g\	Di-
.	.	4G/	.	2e\	pa-	2a\	-sci-
4F\	.	4A/	.	.	.	.	.
=49-	=49-	=49-	=49-	=49-	=49-	=49-	=49-
!LO:TX:t=P:problem=kreska pseudotaktowa	!	!	!	!	!	!	!
!	!	!LO:LB:g=original	!	!	!	!LO:LB:g=original	!
1G	-stra	4B\	.	2d\	.	2b\	-pli-
.	.	4c\	.	.	.	.	.
!	!	!LO:TX:t=P:problem=kreska pseudotaktowa	!	!LO:TX:t=P:problem=kreska pseudotaktowa	!	!	!
.	.	2d\	-na	2g\	-cis	2b\	-na
!	!	!	!	!LO:LB:g=original	!	!	!
2c\	su-	2c\	pa-	2g\	no-	2cc\	pa-
!	!	!	!	!	!	!LO:TX:t=P:problem=kreska pseudotaktowa	!
2C/	-per	2c\	-cis	2g\	-stra	2cc\	-cis
=50-	=50-	=50-	=50-	=50-	=50-	=50-	=50-
*	*ij	*	*	*	*	*	*
2c\	su-	2G/	su-	2g\	su-	2dd\	su-
!	!	!	!	!LO:TX:t=P:problem=kreska pseudotaktowa	!	!	!
2B\	-per	2G/	-per	2g\	-per	2dd\	-per
*	*Xij	*	*	*	*	*	*
2c\	E-	1c	E-	(2g\	E-	(2g\	E-
2A\	.	.	.	2fny\)	.	2cc\)	.
=51-	=51-	=51-	=51-	=51-	=51-	=51-	=51-
!LO:TX:t=P:problem=kreska pseudotaktowa	!	!LO:TX:t=P:problem=kreska pseudotaktowa	!	!	!	!	!
1G	-um	1d	-um	2g,<\	-um	(2cc\	-um
!	!	!	!	!LO:TX:t=P:problem=kreska pseudotaktowa	!	!LO:TX:t=P:problem=kreska pseudotaktowa	!
.	.	.	.	2g\	et	2b\)	.
2F\	et	0r	.	2.c/	li-	2a\	et
2F\	li-	.	.	.	.	2a\	li-
.	.	.	.	4d/	.	.	.
=52-	=52-	=52-	=52-	=52-	=52-	=52-	=52-
2E\	-vo-	.	.	2e\	-vo-	1g	-vo-
2E\	-re	.	.	2e\	-re	.	.
2E\	E-	1r	.	1e	E-	2g,<\	-re
2E\	-jus	.	.	.	.	2g\	E-
=53-	=53-	=53-	=53-	=53-	=53-	=53-	=53-
!	!	!	!	!LO:TX:t=P:problem=kreska pseudotaktowa	!	!LO:TX:t=P:problem=kreska pseudotaktowa	!
2rBB	.	2r	.	1e	-jus	1g	-jus
!LO:TX:t=P:problem=kreska pseudotaktowa	!	!LO:TX:t=P:problem=kreska pseudotaktowa	!	!	!	!	!
2C/	sa-	2c\	sa-	.	.	.	.
!LO:LB:g=original	!	!	!	!LO:TX:t=P:problem=kreska pseudotaktowa	!	!	!
2.G\	-na-	2c\	-na-	1r	.	2r	.
.	.	4B,<\	-ti,	.	.	2.g\	sa-
4F\	.	4B\	sa-	.	.	.	.
=54-	=54-	=54-	=54-	=54-	=54-	=54-	=54-
2.E\	.	2c\	-na-	1g	sa-	.	.
.	.	.	.	.	.	4a\	.
!	!	!LO:TX:t=P:problem=kreska pseudotaktowa	!	!	!	!	!
.	.	2G/	-ti	.	.	2b\	-na-
4D\	.	.	.	.	.	.	.
2C/	.	1G	sa-	2g\	-na-	4cc\	-ti
.	.	.	.	.	.	4g\	.
!LO:TX:t=P:problem=kreska pseudotaktowa	!	!	!	!	!	!LO:TX:t=P:problem=kreska pseudotaktowa	!
2C/	-ti	.	.	2g\	-ti	2cc\	su-
=55-	=55-	=55-	=55-	=55-	=55-	=55-	=55-
!	!	!	!	!LO:TX:t=P:problem=kreska pseudotaktowa	!	!	!
!	!	!	!	!	!	!LO:LB:g=original	!
1GG	-su-	2G/	-na-	1g	su-	2cc\	.
.	.	2G/	-ti	.	.	2b\	.
!LO:TX:t=P:problem=kreska pseudotaktowa	!	!	!	!LO:TX:t=P:problem=kreska pseudotaktowa	!	!	!
!	!	!LO:LB:g=original	!	!LO:LB:g=original	!	!	!
1C	-mus	2G/	-su-	1e	-mus	1cc	.
.	.	2G/	-mus	.	.	.	.
=56-	=56-	=56-	=56-	=56-	=56-	=56-	=56-
!	!	!	!	!	!	!LO:TX:t=P:problem=kreska pseudotaktowa	!
2rBB	.	0r	.	2r	.	1cc	-mus
2C/	li-	.	.	2e\	et	.	.
2F\	-vo-	.	.	2c\	li-	2r	.
!LO:TX:t=P:problem=kreska pseudotaktowa	!	!	!	!	!	!	!
2D\	-re	.	.	2f\	-vo-	2dd\	li-
=57-	=57-	=57-	=57-	=57-	=57-	=57-	=57-
4G\	E-	2r	.	2d\	-re	2b\	-vo-
4E\	.	.	.	.	.	.	.
!	!	!	!	!LO:TX:t=P:problem=kreska pseudotaktowa	!	!LO:TX:t=P:problem=kreska pseudotaktowa	!
2A\	.	2c\	li-	2e\	E-	2cc\	-re
2F,<\	-jus	2c\	-vo-	1f,<	-jus	(4cc\	E-
.	.	.	.	.	.	4a\)	.
!LO:TX:t=P:problem=kreska pseudotaktowa	!	!LO:TX:t=P:problem=kreska pseudotaktowa	!	!	!	!	!
2D\	sa-	2d\	-re	.	.	2a,<\	-jus
=58-	=58-	=58-	=58-	=58-	=58-	=58-	=58-
4E\	-na-	4B\	E-	(2e\	sa-	(2g\	sa-
4C/	-ti	4c\	.	.	.	.	.
2D/	su-	2A\	.	2d\)	.	2dd\)	.
!LO:TX:t=P:problem=kreska pseudotaktowa	!	!	!	!	!	!	!
1GG	-mus	2G/	-jus	4d\	-na-	2b\	-na-
.	.	.	.	4d\	-ti	.	.
!	!	!LO:TX:t=P:problem=kreska pseudotaktowa	!	!LO:TX:t=P:problem=kreska pseudotaktowa	!	!	!
.	.	2d\	sa-	2g\	su-	4b\	-ti
!	!	!	!	!	!	!LO:TX:t=P:problem=kreska pseudotaktowa	!
.	.	.	.	.	.	4b\	sa-
=59-	=59-	=59-	=59-	=59-	=59-	=59-	=59-
!LO:LB:g=original	!	!	!	!	!	!	!
2r	.	4e\	-na-	4g\	-mus	2cc\	-na-
.	.	4c\	.	4g\	sa-	.	.
!	!	!	!	!LO:TX:t=P:problem=kreska pseudotaktowa	!	!	!
2G\	sa-	2d\	-ti	(2g\	-na	2b\	-ti
4A\	-na-	2c\	su-	(4e\)	.	2a\	su-
4F\	-ti	.	.	(4f\)	.	.	.
!LO:TX:t=P:problem=kreska pseudotaktowa	!	!	!	!	!	!	!
2G\	su-	2B\	.	4d\)	.	(4b\	.
.	.	.	.	4g\	-ti	4dd\)	.
=60-	=60-	=60-	=60-	=60-	=60-	=60-	=60-
2C,</	-mus	2c\	-mus	2g\	su-	(2cc\	-mus
!	!	!LO:TX:t=P:problem=kreska pseudotaktowa	!	!LO:TX:t=P:problem=kreska pseudotaktowa	!	!LO:TX:t=P:problem=kreska pseudotaktowa	!
2G\	sa-	2G/	sa-	2g\	-mus	2b\)	.
!	!	!	!	!	!	!LO:LB:g=original	!
4C/	-na-	2G/	-na-	2g\	su-	4cc\	su-
4E/	-ti	.	.	.	.	4g\	.
2D\	su-	2A/	-ti	2f#X\	.	2dd\	.
=61-	=61-	=61-	=61-	=61-	=61-	=61-	=61-
!	!	!	!	!LO:LB:g=original	!	!	!
1GG	.	1G	su-	1g	.	1b	.
!LO:N:vis=0	!	!LO:N:vis=0	!	!LO:N:vis=0	!	!LO:N:vis=0	!
1GG;	-mus.	1G;	-m(us)	1g;<	-mus	1b;	-mus
!LO:PB:g=original	!	!LO:PB:g=original	!	!LO:PB:g=original	!	!LO:PB:g=original	!
==	==	==	==	==	==	==	==
*-	*-	*-	*-	*-	*-	*-	*-
!!!system-decoration: [(s1,s2,s3,s4)]
!!!RDF**kern: < = below
!!!RDF**kern: > = above
!!!ENC: Marta Chmielewska
!!!END: 2021-04-08
!!!ENC: Katarzyna Serwa
!!!END: 2021-03-13
